!!!COM: Richard Strauss
!!!CNT: Deutscher
!!!TXO: Deutsche 
!!!OTL: "Du meines Herzens Kro2nelein"
!!!OPS: Opus 21
!!!ONM: No. 2
!!!LYR: Felix Dahn
!!!ENC: Brian Bice
!!!YOR: Lieder, Complete Edition, vol. 1
!!!ODT: 1888/
!!NB: Vocal melody and text only encoded.
**kern	**silbe
*clefG2	*
*k[b-e-a-d-g-c-]	*
*M2/4	*
=1	=1
{(8b-	{Du
16b-	mei-
16b-	-nes
&(16b-	Her-
16ee-	|
16dd-)&	|
16b-	-zens
=2	=2
8.a-	Kro2-
16b-	-ne-
8g-)}	-lein,}
{(8gg-	{du
=3	=3
8dd-	bist
8b-	von
&(8g-	lau-
16b-)&	|
16a-	-trem
=4	=4
4dd-	Gol-
8d-)}	-de,}
8r	.
=5	=5
16r	.
{16gn	{wenn
[8a-	an-
16a-]	|
16b-	-de-
16ccn	-re
16ee-	da-
=6	=6
16.a-	-ne-
32b-	-ben
8ccn}	sein,}
8r	.
{(8gg-	{dann
=7	=7
8dd-	bist
8b-	du
8g-	noch
8ee-	viel
=8	=8
&(8g-	hol-
16b-	|
16a-)&	|
8g-)}	-de.}
16r	.
{16b-	{Die
=9	=9
8.b-	an-
16b-	-dern
16ccn	tun
16ccn	so
16ccn	gern
32r	.
32ff	ge-
=10	=10
8dd-}	-scheut,}
8r	.
{([4gg-	{du
=11	=11
8gg-]	|
16ff	bist
16dd-	gar
8b-	sanft
8ccn	und
=12	=12
4f	stil-
8f)}	-le,}
16r	.
{(16f	{dass
=13	=13
8.f	je-
16gn	-des
16a-	Herz
16a-	sich
16ff	dein
16ee-	er-
=14	=14
4.ddn)}	-freut,}
{8ddn	{dein
=15	=15
8ee-	Glu2ck
8g-	ist's,
16r	.
8g-	nicht
16a-	dein
=16	=16
8b-	Wil-
8b-}	-le.}
4r	.
=17	=17
16r	.
{16e-	{Die
16e-	an-
16e-	-dern
16f-	su-
16f-	-chen
16.cc-	Lieb
32b-	und
=18	=18
8e-}	Gunst}
16r	.
{16e-	{mit
[4ee-	tau-
=19	=19
8ee-]	|
8dd-	-send
16r	.
8cc-	fal-
16b-	-schen
=20	=20
8b-	Wor-
16cc-}	-ten,}
16r	.
{([4gg-	{du
=21	=21
8gg-]	|
16ff-	oh-
16ee-	-ne
8dd-	Mund
8an	und
=22	=22
&(16b-	Au-
16ee-	|
16dd-)&	|
16b-	-gen-
8g-)}	-kunst}
{8f#	{bist
=23	=23
8.ddn	wert
16f#	an
16f#	al-
16bn	-len
[8an	Or-
=24	=24
8an]	|
8dn}	-ten.}
4r	.
=25	=25
16r	.
{16d-	{Du
8d-	bist,
16r	.
16d-	als
16d-	wie
16d-	die
=26	=26
(8.en	Ros'
16dd-	im
8cc-)}	Wald,}
{(16a-	{sie
16a-	weiss
=27	=27
[4b-	nichts
16b-]	|
16ee-	von
16dd-	ih-
16b-	-rer
=28	=28
(8.a-	Blu2-
16b-)	|
8g-)}	-te,}
{(8gg-	{doch
=29	=29
8dd-	je-
8b-	-dem,
8g-	der
8gg-	vor-
=30	=30
8dd-	-u2-
8b-	-ber-
8g-)}	-wallt,}
{(8ee-	{er-
=31	=31
[4g-	-freut
16g-]	|
16b-	sie
16a-	das
16ee-	Ge-
=32	=32
*M3/4	*
[4ee-	-mu2-
16ee-]	|
16dd-	|
16a-	|
16b-	|
4g-)}	-te.}
*-	*-
